src/assets/error_badge.svg

<svg fill="none" height="79" viewBox="0 0 79 79" width="79" xmlns="http://www.w3.org/2000/svg"><path clip-rule="evenodd" d="m41.6754 1.05731c.0527.05065.104.10281.1538.15644l6.4203 6.90972 9.1746-2.2604c2.0447-.50431 4.1043.77203 4.6003 2.85079.0171.07168.0322.14384.0453.21639l1.6922 9.41625 8.883 2.9981c1.9968.6739 3.0782 2.866 2.4153 4.8961-.0228.07-.0476.1393-.0744.2079l-3.5039 8.9763 5.8033 7.3803c1.3137 1.6708 1.0463 4.108-.5971 5.4436-.0567.046-.1146.0904-.1738.1331l-7.6762 5.5371.9233 9.4917c.2067 2.1287-1.3232 4.0247-3.4169 4.2348l-.2171.0154-9.316.391-4.3504 8.5502c-.9671 1.8997-3.2658 2.6427-5.1343 1.6596-.0644-.0339-.1279-.0697-.1903-.1073l-8.0774-4.8641-8.0761 4.8641c-1.8102 1.09-4.1469.4817-5.219-1.3588-.037-.0634-.0722-.128-.1055-.1935l-4.3537-8.5502-9.3128-.391c-2.10212-.0882-3.73592-1.8922-3.64915-4.0295l.01518-.2207.92011-9.4917-7.67301-5.5371c-1.715762-1.238-2.119536-3.6557-.901857-5.4001.041987-.0601.085657-.119.130954-.1766l5.802013-7.3803-3.50261-8.9763c-.77576-1.9884.18077-4.2396 2.13647-5.0283.06744-.0272.13562-.0524.20448-.0757l8.87972-2.9981 1.6955-9.41625c.3785-2.10415 2.363-3.49797 4.4327-3.11317.0713.01326.1423.0286.2128.04599l9.1733 2.26234 6.4216-6.91166c1.4446-1.555122 3.8557-1.625159 5.3853-.15644z" fill="#f44747" fill-rule="evenodd"/><path d="m37.375 45.875h4.25v4.25h-4.25zm0-17h4.25v12.75h-4.25zm2.1038-10.625c-11.73 0-21.2288 9.52-21.2288 21.25s9.4988 21.25 21.2288 21.25c11.7512 0 21.2712-9.52 21.2712-21.25s-9.52-21.25-21.2712-21.25zm.0212 38.25c-9.3925 0-17-7.6075-17-17s7.6075-17 17-17 17 7.6075 17 17-7.6075 17-17 17z" fill="#fff"/></svg>

<svg width="79" height="79" viewBox="0 0 79 79" fill="none" xmlns="http://www.w3.org/2000/svg">
<path fill-rule="evenodd" clip-rule="evenodd" d="M41.6754 1.05731C41.7281 1.10796 41.7794 1.16012 41.8292 1.21375L48.2495 8.12347L57.4241 5.86307C59.4688 5.35876 61.5284 6.6351 62.0244 8.71386C62.0415 8.78554 62.0566 8.8577 62.0697 8.93025L63.7619 18.3465L72.6449 21.3446C74.6417 22.0185 75.7231 24.2106 75.0602 26.2407C75.0374 26.3107 75.0126 26.38 74.9858 26.4486L71.4819 35.4249L77.2852 42.8052C78.5989 44.476 78.3315 46.9132 76.6881 48.2488C76.6314 48.2948 76.5735 48.3392 76.5143 48.3819L68.8381 53.919L69.7614 63.4107C69.9681 65.5394 68.4382 67.4354 66.3445 67.6455L66.1274 67.6609L56.8114 68.0519L52.461 76.6021C51.4939 78.5018 49.1952 79.2448 47.3267 78.2617C47.2623 78.2278 47.1988 78.192 47.1364 78.1544L39.059 73.2903L30.9829 78.1544C29.1727 79.2444 26.836 78.6361 25.7639 76.7956C25.7269 76.7322 25.6917 76.6676 25.6584 76.6021L21.3047 68.0519L11.9919 67.6609C9.88978 67.5727 8.25598 65.7687 8.34275 63.6314L8.35793 63.4107L9.27804 53.919L1.60503 48.3819C-0.110732 47.1439 -0.514506 44.7262 0.703173 42.9818C0.74516 42.9217 0.78883 42.8628 0.834127 42.8052L6.63614 35.4249L3.13353 26.4486C2.35777 24.4602 3.3143 22.209 5.27 21.4203C5.33744 21.3931 5.40562 21.3679 5.47448 21.3446L14.3542 18.3465L16.0497 8.93025C16.4282 6.8261 18.4127 5.43228 20.4824 5.81708C20.5537 5.83034 20.6247 5.84568 20.6952 5.86307L29.8685 8.12541L36.2901 1.21375C37.7347 -0.341372 40.1458 -0.411409 41.6754 1.05731Z" fill="#F44747"/>
<path d="M37.375 45.875H41.625V50.125H37.375V45.875ZM37.375 28.875H41.625V41.625H37.375V28.875ZM39.4788 18.25C27.7488 18.25 18.25 27.77 18.25 39.5C18.25 51.23 27.7488 60.75 39.4788 60.75C51.23 60.75 60.75 51.23 60.75 39.5C60.75 27.77 51.23 18.25 39.4788 18.25ZM39.5 56.5C30.1075 56.5 22.5 48.8925 22.5 39.5C22.5 30.1075 30.1075 22.5 39.5 22.5C48.8925 22.5 56.5 30.1075 56.5 39.5C56.5 48.8925 48.8925 56.5 39.5 56.5Z" fill="white"/>
</svg>
